AD-BlueAgave-Suru/apps/16/steamvr.svg

<svg xmlns="http://www.w3.org/2000/svg" width="16" height="16" version="1.1">
 <defs>
   <style id="current-color-scheme" type="text/css">
   .ColorScheme-Text { color: #d3dae3; } .ColorScheme-Highlight { color:#5294e2; }
  </style>
  <linearGradient id="arrongin" x1="0%" x2="0%" y1="0%" y2="100%">
   <stop offset="0%" style="stop-color:#dd9b44; stop-opacity:1"/>
   <stop offset="100%" style="stop-color:#ad6c16; stop-opacity:1"/>
  </linearGradient>
  <linearGradient id="aurora" x1="0%" x2="0%" y1="0%" y2="100%">
   <stop offset="0%" style="stop-color:#09D4DF; stop-opacity:1"/>
   <stop offset="100%" style="stop-color:#9269F4; stop-opacity:1"/>
  </linearGradient>
  <linearGradient id="cyberneon" x1="0%" x2="0%" y1="0%" y2="100%">
    <stop offset="0" style="stop-color:#0abdc6; stop-opacity:1"/>
    <stop offset="1" style="stop-color:#ea00d9; stop-opacity:1"/>
  </linearGradient>
  <linearGradient id="fitdance" x1="0%" x2="0%" y1="0%" y2="100%">
   <stop offset="0%" style="stop-color:#1AD6AB; stop-opacity:1"/>
   <stop offset="100%" style="stop-color:#329DB6; stop-opacity:1"/>
  </linearGradient>
  <linearGradient id="oomox" x1="0%" x2="0%" y1="0%" y2="100%">
   <stop offset="0%" style="stop-color:#59d2ff; stop-opacity:1"/>
   <stop offset="100%" style="stop-color:#008bbf; stop-opacity:1"/>
  </linearGradient>
  <linearGradient id="rainblue" x1="0%" x2="0%" y1="0%" y2="100%">
   <stop offset="0%" style="stop-color:#00F260; stop-opacity:1"/>
   <stop offset="100%" style="stop-color:#0575E6; stop-opacity:1"/>
  </linearGradient>
  <linearGradient id="sunrise" x1="0%" x2="0%" y1="0%" y2="100%">
   <stop offset="0%" style="stop-color: #FF8501; stop-opacity:1"/>
   <stop offset="100%" style="stop-color: #FFCB01; stop-opacity:1"/>
  </linearGradient>
  <linearGradient id="telinkrin" x1="0%" x2="0%" y1="0%" y2="100%">
   <stop offset="0%" style="stop-color: #b2ced6; stop-opacity:1"/>
   <stop offset="100%" style="stop-color: #6da5b7; stop-opacity:1"/>
  </linearGradient>
  <linearGradient id="60spsycho" x1="0%" x2="0%" y1="0%" y2="100%">
   <stop offset="0%" style="stop-color: #df5940; stop-opacity:1"/>
   <stop offset="25%" style="stop-color: #d8d15f; stop-opacity:1"/>
   <stop offset="50%" style="stop-color: #e9882a; stop-opacity:1"/>
   <stop offset="100%" style="stop-color: #279362; stop-opacity:1"/>
  </linearGradient>
  <linearGradient id="90ssummer" x1="0%" x2="0%" y1="0%" y2="100%">
   <stop offset="0%" style="stop-color: #f618c7; stop-opacity:1"/>
   <stop offset="20%" style="stop-color: #94ffab; stop-opacity:1"/>
   <stop offset="50%" style="stop-color: #fbfd54; stop-opacity:1"/>
   <stop offset="100%" style="stop-color: #0f83ae; stop-opacity:1"/>
  </linearGradient>
 </defs>
 <path fill="url(#oomox)" class="ColorScheme-Text" d="M 4.174,2.609 C 3.523,2.609 2.291,3.329 0.109,6.757 0.001,6.928 -0.026,7.137 0.034,7.33 0.012,7.376 0,7.427 0,7.478 v 5.218 c 0,0.372 0.3,0.695 0.681,0.695 H 6.258 C 6.647,13.391 7,13.159 7.167,12.808 7.171,12.8 7.175,12.792 7.178,12.783 L 7.834,11.069 C 7.878,10.979 7.935,10.957 8,10.957 c 0.065,0 0.122,0.022 0.166,0.112 l 0.656,1.714 c 0.003,0.009 0.007,0.017 0.011,0.025 0.167,0.351 0.52,0.583 0.909,0.583 h 5.577 C 15.7,13.391 16,13.068 16,12.696 V 7.478 c 0,-0.05 -0.011,-0.1 -0.033,-0.145 0.056,-0.178 0.037,-0.372 -0.053,-0.535 -1.042,-1.911 -2.537,-4.189 -3.74,-4.189 -1.739,0 -1.739,1.833 -1.739,2.434 v 0.029 c 0.023,0.547 0.413,1.363 1.391,1.363 0.173,0 0.339,-0.052 0.483,-0.147 0.069,0.28 0.134,0.565 0.195,0.842 H 9.332 C 9.046,7.13 8.849,7.254 8.675,7.341 8.503,7.428 8.351,7.478 8.331,7.478 H 7.667 C 7.65,7.478 7.497,7.428 7.325,7.341 7.151,7.254 6.954,7.13 6.669,7.13 H 3.521 C 3.632,6.804 3.749,6.469 3.87,6.147 4.022,6.326 4.231,6.435 4.522,6.435 5.5,6.435 5.89,5.619 5.913,5.072 V 5.043 c 0,-0.601 0,-2.434 -1.739,-2.434 z m 0,0.695 c 1.043,0 1.043,1.072 1.043,1.739 0,0 -0.028,0.696 -0.695,0.696 C 4.174,5.739 4.174,4.55 4.174,4 3.827,4 2.783,7.13 2.783,7.13 H 0.696 c 0,0 2.434,-3.826 3.478,-3.826 z m 8,0 c 1.043,0 3.13,3.826 3.13,3.826 h -2.087 c 0,0 -0.667,-3.13 -1.043,-3.13 0,0.55 0.028,1.739 -0.348,1.739 -0.667,0 -0.696,-0.696 -0.696,-0.696 0,-0.667 0,-1.739 1.044,-1.739 z M 0.696,7.826 h 5.973 c 0.019,0 0.169,0.051 0.343,0.137 0.174,0.087 0.371,0.211 0.655,0.211 H 8.331 C 8.617,8.174 8.814,8.05 8.988,7.963 9.16,7.877 9.312,7.826 9.331,7.826 h 5.973 v 4.87 H 9.742 c -0.114,0 -0.222,-0.067 -0.28,-0.186 L 8.806,10.795 C 8.665,10.474 8.35,10.265 8,10.261 7.65,10.265 7.335,10.474 7.194,10.795 L 6.538,12.51 C 6.48,12.629 6.372,12.696 6.258,12.696 H 0.696 Z M 9.73,8.533 c -0.443,0 -0.495,0.235 -0.427,0.44 0.344,1.19 0.435,1.976 0.758,2.683 0.068,0.131 0.185,0.348 0.362,0.348 h 3.826 c 0.181,0 0.358,-0.172 0.358,-0.348 V 8.87 c 0,-0.187 -0.159,-0.337 -0.352,-0.337 z"/>
 <path fill="url(#oomox)" class="ColorScheme-Text" opacity="0.6" d="m 1.731,8.533 c -0.193,0 -0.35,0.15 -0.35,0.337 v 2.786 c 0,0.176 0.177,0.348 0.358,0.348 h 3.826 c 0.177,0 0.292,-0.217 0.36,-0.348 C 6.249,10.949 6.341,10.163 6.685,8.973 6.751,8.768 6.7,8.533 6.257,8.533 Z"/>
</svg>

<svg xmlns="http://www.w3.org/2000/svg" style="isolation:isolate" width="16" height="16" viewBox="0 0 16 16">
 <defs>
  <style id="current-color-scheme" type="text/css">
   .ColorScheme-Text { color:#d3dae3; } .ColorScheme-Highlight { color:#5294e2; }
  </style>
  <linearGradient id="arrongin" x1="0%" x2="0%" y1="0%" y2="100%">
   <stop offset="0%" style="stop-color:#dd9b44; stop-opacity:1"/>
   <stop offset="100%" style="stop-color:#ad6c16; stop-opacity:1"/>
  </linearGradient>
  <linearGradient id="aurora" x1="0%" x2="0%" y1="0%" y2="100%">
   <stop offset="0%" style="stop-color:#09D4DF; stop-opacity:1"/>
   <stop offset="100%" style="stop-color:#9269F4; stop-opacity:1"/>
  </linearGradient>
  <linearGradient id="fitdance" x1="0%" x2="0%" y1="0%" y2="100%">
   <stop offset="0%" style="stop-color:#1AD6AB; stop-opacity:1"/>
   <stop offset="100%" style="stop-color:#329DB6; stop-opacity:1"/>
  </linearGradient>
  <linearGradient id="oomox" x1="0%" x2="0%" y1="0%" y2="100%">
   <stop offset="0%" style="stop-color:#4ccfff; stop-opacity:1"/>
   <stop offset="100%" style="stop-color:#0095cc; stop-opacity:1"/>
  </linearGradient>
  <linearGradient id="rainblue" x1="0%" x2="0%" y1="0%" y2="100%">
   <stop offset="0%" style="stop-color:#00F260; stop-opacity:1"/>
   <stop offset="100%" style="stop-color:#0575E6; stop-opacity:1"/>
  </linearGradient>
  <linearGradient id="sunrise" x1="0%" x2="0%" y1="0%" y2="100%">
   <stop offset="0%" style="stop-color: #FF8501; stop-opacity:1"/>
   <stop offset="100%" style="stop-color: #FFCB01; stop-opacity:1"/>
  </linearGradient>
  <linearGradient id="telinkrin" x1="0%" x2="0%" y1="0%" y2="100%">
   <stop offset="0%" style="stop-color: #b2ced6; stop-opacity:1"/>
   <stop offset="100%" style="stop-color: #6da5b7; stop-opacity:1"/>
  </linearGradient>
  <linearGradient id="60spsycho" x1="0%" x2="0%" y1="0%" y2="100%">
   <stop offset="0%" style="stop-color: #df5940; stop-opacity:1"/>
   <stop offset="25%" style="stop-color: #d8d15f; stop-opacity:1"/>
   <stop offset="50%" style="stop-color: #e9882a; stop-opacity:1"/>
   <stop offset="100%" style="stop-color: #279362; stop-opacity:1"/>
  </linearGradient>
  <linearGradient id="90ssummer" x1="0%" x2="0%" y1="0%" y2="100%">
   <stop offset="0%" style="stop-color: #f618c7; stop-opacity:1"/>
   <stop offset="20%" style="stop-color: #94ffab; stop-opacity:1"/>
   <stop offset="50%" style="stop-color: #fbfd54; stop-opacity:1"/>
   <stop offset="100%" style="stop-color: #0f83ae; stop-opacity:1"/>
  </linearGradient>
 </defs>
 <path style="fill:url(#oomox)" class="ColorScheme-Text" d="M 4.174 2.609 C 3.523 2.609 2.291 3.329 0.109 6.757 C 0.001 6.928 -0.026 7.137 0.034 7.33 C 0.012 7.376 0 7.427 0 7.478 L 0 12.696 C 0 13.068 0.3 13.391 0.681 13.391 L 6.258 13.391 C 6.647 13.391 7 13.159 7.167 12.808 C 7.171 12.8 7.175 12.792 7.178 12.783 L 7.834 11.069 C 7.878 10.979 7.935 10.957 8 10.957 C 8.065 10.957 8.122 10.979 8.166 11.069 L 8.822 12.783 C 8.825 12.792 8.829 12.8 8.833 12.808 C 9 13.159 9.353 13.391 9.742 13.391 L 15.319 13.391 C 15.7 13.391 16 13.068 16 12.696 L 16 7.478 C 16 7.428 15.989 7.378 15.967 7.333 C 16.023 7.155 16.004 6.961 15.914 6.798 C 14.872 4.887 13.377 2.609 12.174 2.609 C 10.435 2.609 10.435 4.442 10.435 5.043 L 10.435 5.072 C 10.458 5.619 10.848 6.435 11.826 6.435 C 11.999 6.435 12.165 6.383 12.309 6.288 C 12.378 6.568 12.443 6.853 12.504 7.13 L 9.332 7.13 C 9.046 7.13 8.849 7.254 8.675 7.341 C 8.503 7.428 8.351 7.478 8.331 7.478 L 7.667 7.478 C 7.65 7.478 7.497 7.428 7.325 7.341 C 7.151 7.254 6.954 7.13 6.669 7.13 L 3.521 7.13 C 3.632 6.804 3.749 6.469 3.87 6.147 C 4.022 6.326 4.231 6.435 4.522 6.435 C 5.5 6.435 5.89 5.619 5.913 5.072 L 5.913 5.043 C 5.913 4.442 5.913 2.609 4.174 2.609 Z M 4.174 3.304 C 5.217 3.304 5.217 4.376 5.217 5.043 C 5.217 5.043 5.189 5.739 4.522 5.739 C 4.174 5.739 4.174 4.55 4.174 4 C 3.827 4 2.783 7.13 2.783 7.13 L 0.696 7.13 C 0.696 7.13 3.13 3.304 4.174 3.304 Z M 12.174 3.304 C 13.217 3.304 15.304 7.13 15.304 7.13 L 13.217 7.13 C 13.217 7.13 12.55 4 12.174 4 C 12.174 4.55 12.202 5.739 11.826 5.739 C 11.159 5.739 11.13 5.043 11.13 5.043 C 11.13 4.376 11.13 3.304 12.174 3.304 Z M 0.696 7.826 L 6.669 7.826 C 6.688 7.826 6.838 7.877 7.012 7.963 C 7.186 8.05 7.383 8.174 7.667 8.174 L 8.331 8.174 C 8.617 8.174 8.814 8.05 8.988 7.963 C 9.16 7.877 9.312 7.826 9.331 7.826 L 15.304 7.826 L 15.304 12.696 L 9.742 12.696 C 9.628 12.696 9.52 12.629 9.462 12.51 L 8.806 10.795 C 8.665 10.474 8.35 10.265 8 10.261 C 7.65 10.265 7.335 10.474 7.194 10.795 L 6.538 12.51 C 6.48 12.629 6.372 12.696 6.258 12.696 L 0.696 12.696 L 0.696 7.826 Z M 1.731 8.533 C 1.538 8.533 1.381 8.683 1.381 8.87 L 1.381 11.656 C 1.381 11.832 1.558 12.004 1.739 12.004 L 5.565 12.004 C 5.742 12.004 5.857 11.787 5.925 11.656 C 6.249 10.949 6.341 10.163 6.685 8.973 C 6.751 8.768 6.7 8.533 6.257 8.533 L 1.731 8.533 Z M 9.73 8.533 C 9.287 8.533 9.235 8.768 9.303 8.973 C 9.647 10.163 9.738 10.949 10.061 11.656 C 10.129 11.787 10.246 12.004 10.423 12.004 L 14.249 12.004 C 14.43 12.004 14.607 11.832 14.607 11.656 L 14.607 8.87 C 14.607 8.683 14.448 8.533 14.255 8.533 L 9.73 8.533 Z"/>
</svg>
